X:3407
T:La Laguiolaise
O:england
M:3/8
L:1/16
K:C
e4g2|e4g2|f2d2a2|g4ef|\
g2gagf|e2c2e2|1 def2e2|d6:|2 defdBd|c4||
|:Bc|d2d2cd|e2e2de|f2e2d2|g4e2|\
g3agf|e2c2e2|1 def2e2|d4:|2 defdBd|c6||


